X:32
T:Kolom
O:vlaanderen
C:Trad.
Z:Bart Vanhaverbeke 
L:1/8
M:C
K:C
G | c2 c2 c3 G | ce ge c3 e | ed df fe eg |1 g>f ed e2 c G :|2 g>f ed c2 d>e ||
ff ef gg d>e | ff ed ec d>e | ff ef gg d>e |1 ff ed c2 d>e :|2 ff ed c3 |]
